icons/file-zip-fill.svg

<svg xmlns="http://www.w3.org/2000/svg" width="24" height="24" fill="none"><g clip-path="url(#a)"><g><path fill="#121212" d="M10 2V4H12V2H20.007C20.555 2 21 2.444 21 2.992V21.008C20.9979 21.2706 20.8926 21.5219 20.7068 21.7075C20.521 21.8931 20.2696 21.9982 20.007 22H3.993C3.72981 22 3.47739 21.8955 3.2912 21.7095C3.105 21.5235 3.00027 21.2712 3 21.008V2.992C3.00209 2.72938 3.10742 2.47813 3.29322 2.29251C3.47902 2.1069 3.73038 2.00183 3.993 2H10ZM12 4V6H14V4H12ZM10 6V8H12V6H10ZM12 8V10H14V8H12ZM10 10V12H12V10H10ZM12 12V14H10V17H14V12H12Z"/></g></g><defs><clipPath id="a"><rect width="24" height="24" fill="white"/></clipPath></defs></svg>

<svg width="24" height="24" fill="none" xmlns="http://www.w3.org/2000/svg"><g clip-path="url(#a)"><path d="M10 2v2h2V2h8.007c.548 0 .993.444.993.992v18.016a1 1 0 0 1-.993.992H3.993A.993.993 0 0 1 3 21.008V2.992A1 1 0 0 1 3.993 2H10Zm2 2v2h2V4h-2Zm-2 2v2h2V6h-2Zm2 2v2h2V8h-2Zm-2 2v2h2v-2h-2Zm2 2v2h-2v3h4v-5h-2Z" /></g><defs><clipPath id="a"><path fill="#fff" d="M0 0h24v24H0z"/></clipPath></defs></svg>
